packages/core/src/svgs/uqc.svg

<svg width="24" height="24" viewBox="0 0 24 24" fill="none" xmlns="http://www.w3.org/2000/svg">
<g clip-path="url(#clip0_31_20237)">
<path d="M0 0H24V24H0V0Z" fill="#F0F3FA"/>
<path d="M14.5714 14.1429V6L16.7142 10.2857V18.7131C16.0714 18.8571 14.5714 18.8571 14.5714 18.8571V14.1429L13.2857 16.7143H11.1428L9.85709 14.1429V18.8571C9.85709 18.8571 8.5388 18.8786 7.71423 18.7131V10.2857L9.85709 6V14.1429H14.5714Z" fill="#E85C50"/>
<path d="M7.71427 18.7123C6.82198 18.504 5.57141 17.6229 5.57141 16.7267V6L7.71427 10.2857V18.7123ZM16.7143 18.7123C17.6066 18.504 18.8571 17.6229 18.8571 16.7267V6L16.7143 10.2857V18.7123Z" fill="#CF3339"/>
<path d="M7.71427 10.2857L5.57141 6H9.85713L7.71427 10.2857ZM16.7143 10.2857L18.8571 6H14.5714L16.7143 10.2857Z" fill="#E33936"/>
<path d="M14.5715 18.8572H9.85718L11.1429 16.7144H13.2857L14.5715 18.8572Z" fill="#CF3339"/>
<path d="M11.1429 16.7145L9.85718 18.8574V14.1431L11.1429 16.7145ZM14.5715 18.8574L13.2857 16.7145L14.5715 14.1431V18.8574Z" fill="#E33937"/>
</g>
<defs>
<clipPath id="clip0_31_20237">
<rect width="24" height="24" fill="white"/>
</clipPath>
</defs>
</svg>

<svg xmlns="http://www.w3.org/2000/svg" width="24" height="24" fill="none" viewBox="0 0 24 24"><g clip-path="url(#a)"><path fill="#F0F3FA" d="M0 0h24v24H0z"/><path fill="#E85C50" d="M14.571 14.143V6l2.143 4.286v8.427c-.643.144-2.143.144-2.143.144zl-1.285 2.571h-2.143l-1.286-2.571v4.714s-1.318.022-2.143-.144v-8.427L9.857 6v8.143z"/><path fill="#CF3339" d="M7.714 18.712c-.892-.208-2.143-1.09-2.143-1.985V6l2.143 4.286zm9 0c.893-.208 2.143-1.09 2.143-1.985V6l-2.143 4.286z"/><path fill="#E33936" d="M7.714 10.286 5.571 6h4.286zm9 0L18.857 6h-4.286z"/><path fill="#CF3339" d="M14.572 18.857H9.857l1.286-2.143h2.143z"/><path fill="#E33937" d="m11.143 16.715-1.286 2.142v-4.714zm3.428 2.142-1.285-2.142 1.286-2.572z"/></g><defs><clipPath id="a"><path fill="#fff" d="M0 0h24v24H0z"/></clipPath></defs></svg>
